X:99
T:Kinnegad Slashers
M:6/8
K:D
A|ded dAF|ABA ABc|ded dAF|Eee efe|\
ded dAF|ABA Aag|fef dBA| Bdc d2 A:|
|dfa afd|cde ecA|dfa afd|faa a2A|\
dfa afd|cde eag|fef dBA|Bdc d2 A:|
|dAF dAF|ABA ABc|dAF dAF|Eee efe|\
dAF dAF|ABA Aag|fef dBA|Bdc d2 A:|
